X: 28
T: Easy Club
C:Jim Sutherland
R:reel
B:BSFC X-22
Z: John Chambers <jc:trillian.mit.edu>
M: C|
L:1/8
K:A
   E2 | "A"A2cA "E7"BcdB | "A"cdec "D"defg | "A"a2ae  faec | "E7(G)"dccB- BdcB |
   y3 | "A"A2cA "E7"BcdB | "A"cdec "D"defg | "A"a2ae  faec | "G"dB=GB  "A"A2  :|
|: ce | "D"faad-    daaa | "A"eaac-   caaa | "D"faad- dffd | "A"ceeB- "E7"BdcB |
   y4 | "A"A2cA "E7"BcdB | "A"cdec "D"defg | "A"a2ae  faec | "G"dB=GB  "A"A2  :|

%%sep 1 1 500

